openmetadata-ui/src/main/resources/ui/src/assets/svg/search-color.svg

<svg width="20" height="20" viewBox="0 0 20 20" fill="#1e61f0" xmlns="http://www.w3.org/2000/svg">
<path d="M19.7556 18.5775L14.0682 12.89C15.1698 11.5292 15.8331 9.8 15.8331 7.91668C15.8331 3.55168 12.2815 0 7.91655 0C3.5516 0 0 3.55164 0 7.91664C0 12.2816 3.55164 15.8333 7.91659 15.8333C9.79989 15.8333 11.5291 15.17 12.8899 14.0683L18.5773 19.7558C18.7398 19.9183 18.9531 20 19.1665 20C19.3798 20 19.5931 19.9183 19.7556 19.7558C20.0815 19.43 20.0815 18.9033 19.7556 18.5775ZM7.91659 14.1666C4.46995 14.1666 1.66666 11.3633 1.66666 7.91664C1.66666 4.46996 4.46995 1.66664 7.91659 1.66664C11.3632 1.66664 14.1665 4.46996 14.1665 7.91664C14.1665 11.3633 11.3632 14.1666 7.91659 14.1666Z" fill="#1e61f0"/>
</svg>

<svg xmlns="http://www.w3.org/2000/svg" width="20" height="20" fill="#004AB3FF"><path d="m19.756 18.578-5.688-5.688a7.879 7.879 0 0 0 1.765-4.973C15.833 3.552 12.281 0 7.917 0 3.552 0 0 3.552 0 7.917s3.552 7.916 7.917 7.916a7.878 7.878 0 0 0 4.973-1.765l5.687 5.688a.831.831 0 0 0 1.179 0 .832.832 0 0 0 0-1.178Zm-11.84-4.411a6.256 6.256 0 0 1-6.25-6.25 6.257 6.257 0 0 1 6.25-6.25 6.257 6.257 0 0 1 6.25 6.25 6.256 6.256 0 0 1-6.25 6.25Z"/></svg>
